X:1
T: Hunt the Squirrel (2)
N:
C:
S:
A:
O:
R:
M:6/8
K:A
I:speed 165
%W: A1
% voice 1 (1 lines, 30 notes)
K:A
M:6/8
L:1/16
A2 e4 e4 f2 e6 c6 A2 B2 c2 B4 A2 A2 B2 c2 B4 A2 |A2 e4 e4 f2 e6 c6 A2 B2 c2 B4 A2 A6A4 A2 |
%W: A2
% voice 1 (1 lines, 30 notes)
A2 e4 e4 f2 e6 c6 A2 B2 c2 B4 A2 A2 B2 c2 B4 A2 |A2 e4 e4 f2 e6 c6 A2 B2 c2 B4 A2 A6A4 z2 |
%W: B1
% voice 1 (1 lines, 33 notes)
d4 e2 f2 e2 d2 d4 e2 f2 e2 d2 d4 e2 f4 g2 a6a4 g f |e2 c4 e2 c4 e2 c4 e6 A2 B2 c2 B4 A2 A6A4 z2 |
%W: B2
% voice 1 (1 lines, 33 notes)
d4 e2 f2 e2 d2 d4 e2 f2 e2 d2 d4 e2 f4 g2 a6a4 g f |e2 c4 e2 c4 e2 c4 e6 A2 B2 c2 B4 A2 A6A4 z2 ||
